Obsidian-SemiLight/actions/24s/tab-new-background.svg

<svg viewBox="0 0 24 24" xmlns="http://www.w3.org/2000/svg"><path d="m4 4v1 14 1h10v-1h-9v-14h4v3h8 2v6h1v-7h-1-2v-3h-8-4zm13 10-.574219 1.613281-1.546875-.734375.734375 1.546875-1.613281.574219 1.613281.574219-.734375 1.546875 1.546875-.734375.574219 1.613281.574219-1.613281 1.546875.734375-.734375-1.546875 1.613281-.574219-1.613281-.574219.734375-1.546875-1.546875.734375z" fill="#4d4d4d"/></svg>

<svg xmlns="http://www.w3.org/2000/svg" viewBox="0 0 24 24">
  <defs id="defs3051">
    <style type="text/css" id="current-color-scheme">
      .ColorScheme-Text {
        color:#4d4d4d;
      }
      </style>
  </defs>
 <path style="fill:currentColor;fill-opacity:1;stroke:none" 
     d="M 4 4 L 4 5 L 4 19 L 4 20 L 14 20 L 14 19 L 5 19 L 5 5 L 9 5 L 9 8 L 17 8 L 19 8 L 19 14 L 20 14 L 20 7 L 19 7 L 17 7 L 17 4 L 9 4 L 5 4 L 4 4 z M 17 14 L 16.425781 15.613281 L 14.878906 14.878906 L 15.613281 16.425781 L 14 17 L 15.613281 17.574219 L 14.878906 19.121094 L 16.425781 18.386719 L 17 20 L 17.574219 18.386719 L 19.121094 19.121094 L 18.386719 17.574219 L 20 17 L 18.386719 16.425781 L 19.121094 14.878906 L 17.574219 15.613281 L 17 14 z "
     class="ColorScheme-Text"
     />
</svg>
